X:1
T:Title
%%score { ( 1 3 5 ) | ( 2 4 ) }
L:1/8
Q:1/4=106
M:4/4
K:D
V:1 treble nm="Grand Piano"
V:3 treble 
V:5 treble 
V:2 bass 
V:4 bass 
V:1
 FFFF [A,CF]2[K:bass] [G,CE]2 | [F,D]4[K:treble] [DFA]4 | [DGB]3 [DGB] [DFA]4 | A4 z4 | %4
w: J.~Lincoln~Hall * * * * *||||
 [A,DF][A,DF][A,DF][A,DF] [A,CF]2[K:bass] [G,CE]2 | [F,D]4[K:treble] [DFA]4 | [DGB]4 [EGc]3 [Gc] | %7
w: |||
 [Fd]6 z2 | [EG][EG][EG][EG] [DF]2 [CE]2 | D4 [FA]4 | BBBB c2 d2 | d4 c4 | %12
w: |||||
 [Fd][Fd][Fd][Fd] [=Fc]2 [FB]2 | [FA]4 [Fd]4 | B2 [Ge]2 [Gc]3 [Gc] | [Fd]6 z2 | z2 D2 z Bcd | %17
w: |||||
 d2- [Gd]2 [Gc]4 | z2 E2 z ABc | B2- [DGB]2 [DFA]4 | [DFd]3 d d2 d2 | e2 d2 c2 B2 | A4 c3 c | %23
w: ||||||
 [Fd]6 z2 |] %24
w: |
V:2
 [D,A,D][D,A,D][D,A,D][D,A,D] A,,2 A,,2 | D,4 D,4 | G,3 G, D,4 | D,2 z G D,4 | D,D,D,D, A,,2 A,,2 | %5
 D,4 D,4 | G,2 E,2 A,2 z E | [D,D]6 z2 | [A,,A,][A,,A,][A,,A,][A,,A,] [A,,A,]2 [A,,G,]2 | %9
 [D,F,]4 [D,D]4 | [G,DG][G,DG][G,DG][G,DG] [G,CG]2 [G,B,G]2 | F4 G4 | %12
 [D,A,][D,A,][D,A,][D,A,] [D,^G,]2 [D,G,]2 | [D,A,]4 [D,A,]4 | [G,G]2 [E,E]2 [A,E]3 [A,E] | %15
 [D,A,D]6 z2 | [D,F,D]2 [A,,F,]2 [D,F,]2 z2 | [E,A,]2 [A,,A,]2 [E,A,]4 | %18
 [E,A,E]2 [A,,A,]2 [E,A,]2 z2 | D,2 D,2 D,4 | D,2 z[K:treble] [DF] [A,DF]2 [=CDF]2 | %21
 [B,DG]2 [B,DG]2 [^G,D=F]2 [G,DF]2 | [A,DF]4 [A,EG]3 [A,EG] | [D,D]6 z2 |] %24
V:3
 x6[K:bass] x2 | x4[K:treble] x4 | x8 | [DF]2 [A,E]2 [A,DF]4 | x6[K:bass] x2 | x4[K:treble] x4 | %6
 x8 | x8 | x8 | x8 | x8 | x8 | x8 | x8 | x8 | x8 | A6 z2 | G2 z2 z4 | G6 z2 | [DG]2 z2 z4 | x8 | %21
 x8 | x8 | x8 |] %24
V:4
 x8 | x8 | x8 | z2 C,2 z4 | x8 | x8 | z4 z2 A,,2 | x8 | x8 | x8 | x8 | A,8 | x8 | x8 | x8 | x8 | %16
 x8 | x8 | x8 | x8 | z2 F,2[K:treble] z4 | x8 | x8 | x8 |] %24
V:5
 x6[K:bass] x2 | x4[K:treble] x4 | x8 | x8 | x6[K:bass] x2 | x4[K:treble] x4 | x8 | x8 | x8 | x8 | %10
 x8 | x8 | x8 | x8 | x8 | x8 | z4 D2 z2 | x8 | z4 E2 z2 | x8 | x8 | x8 | x8 | x8 |] %24

